assets/svg/launchopen_in_new.svg

<!-- Generated by IcoMoon.io -->
<svg version="1.1" xmlns="http://www.w3.org/2000/svg" width="24" height="24" viewBox="0 0 24 24">
<title>launchopen_in_new</title>
<path d="M14.016 3h6.984v6.984h-2.016v-3.563l-9.797 9.797-1.406-1.406 9.797-9.797h-3.563v-2.016zM18.984 18.984v-6.984h2.016v6.984q0 0.797-0.609 1.406t-1.406 0.609h-13.969q-0.844 0-1.43-0.586t-0.586-1.43v-13.969q0-0.844 0.586-1.43t1.43-0.586h6.984v2.016h-6.984v13.969h13.969z"></path>
</svg>

<svg xmlns="http://www.w3.org/2000/svg" viewBox="0 0 24 24"><path d="M14.016 3H21v6.984h-2.016V6.421l-9.797 9.797-1.406-1.406 9.797-9.797h-3.563V2.999zm4.968 15.984V12H21v6.984q0 .797-.609 1.406t-1.406.609H5.016q-.844 0-1.43-.586T3 18.983V5.014q0-.844.586-1.43t1.43-.586H12v2.016H5.016v13.969h13.969z"/></svg>
